X:460
T:Muffin Man
M:4/4
K:G
L:1/8
D2 G2 G3 A | B2 G2 G3 F | E2 A2 A3 G | F2 D2 D4 |
D2 G2 G3 A | B2 G2 G3 F | E2 A2 G2 F2 | G4 G4 :|
d2 d2 d3 c | B2 G2 G3 F | E2 A2 A3 G | F2 D2 D4 |
d2 d2 d3 c | B2 G2 G3 F | E2 A2 G2 F2 | G4 G4 :|
